X:1
T:Title
%%score ( 1 2 ) { 3 | 4 }
L:1/8
Q:1/4=110
M:9/8
K:Ab
V:1 treble nm="Grand Piano, Soprano"
V:2 treble 
V:3 bass nm="Choir Pad, Telangana, W. Galpin, 1878"
V:4 bass 
V:1
 EA[DB] [Ec]3 [CA]3 | BA[EB] [Ec]3 [Ec]3 | C-[CA][Ec] [Ee]3 [Ec]3 | [Ed]2 [Ec] [EB]6 | %4
w: By~William~A.~Galpin,~1878 * * * *||||
 C-[CA][DB] [Ec]3 [Ec]3 | cB[_Gc] [Fd]3 [Fd]3 | [Ec]2 [Ec] [EB]3- [EB]2 [EB] | [Ec]2 [EB] B2 c d3 | %8
w: ||||
 EA[Ec] [Ee]3 [Ec]3 | [DB][Ec][DB] [CA]3 [CE]3 | CE[CA] [Ec]3 [CA]3 | [EB]2 [Ec] [EB]6 | %12
w: ||||
 C-[CA][Ec] [Ee]3 [Ec]3 | [Ed]2 [Ec] [FB]3 [DF]3 | [DF]2 [DF] [CE]3 [_C=D]2 [=CE] | %15
w: |||
 [DF]2 [DG] [CA]6- | [CA]3 z3 z3 |] %17
w: ||
V:2
 .C3 z3 z3 | .E3 z3 z3 | .E3 z3 z3 | x9 | .E3 z3 z3 | ._G3 z3 z3 | x9 | z3 E6 | x9 | x9 | x9 | x9 | %12
 .E3 z3 z3 | x9 | x9 | x9 | x9 |] %17
V:3
 A,2 A, A,3 A,3 | G,F,G, A,3 A,3 | A,2 A, C3 A,3 | B,2 A, G,6 | A,2 A, A,3 A,3 | A,2 A, A,3 A,3 | %6
 A,2 A, G,3- G,2 G, | A,2 G, G,2 A, B,3 | C2 C C3 A,3 | G,2[K:bass] G, A,3 A,3 | A,2 A, A,3 A,3 | %11
 G,2 A, G,6 | A,2 A,[K:treble] C3 E3 | E2 E D3[K:bass] A,3 | A,2 A, A,3 A,3 | G,2 B, A,6- | %16
 A,3 z3 z3 |] %17
V:4
 A,,2 A,, A,,3 A,,3 | E,2 E, z3 z3 | A,,2 A,, A,3 z3 | .G,3 E,6 | A,,2 A,, A,,3 A,,3 | %5
 A,,2 A,, D,3 D,3 | A,,2 A,, E,3- E,2 E, | E,2 E, E,6 | A,,2 A,, A,,3 A,,3 | E,2 E, A,,3 A,,3 | %10
 A,,2 A,, A,,3 A,,3 | E,2 E, E,6 | z3 A,3 A,3 | G,2 A, D,3 D,3 | D,2 D, E,3 E,3 | E,2 E, A,,6- | %16
 A,,3 z3 z3 |] %17

